img/baliq.svg

<svg width="21" height="22" viewBox="0 0 21 22" fill="none" xmlns="http://www.w3.org/2000/svg">
<path d="M6.70129 13.3186C6.40107 13.934 6.27348 14.4493 6.26531 14.483C6.22093 14.6662 6.30035 14.8556 6.45932 14.9532C6.54635 15.0066 8.61043 16.2529 10.3242 15.5456C10.4614 15.489 10.5952 15.427 10.7251 15.3602C9.26366 14.9955 7.89394 14.2293 6.70129 13.3186Z" fill="#78C0DE"/>
<path d="M6.73964 7.74815C6.74296 7.75078 6.89134 7.87091 7.08784 8.06436C8.6845 6.92709 10.5592 6.07952 12.5203 6.07954C12.9529 6.07946 13.3892 6.10548 13.8272 6.15684C13.6028 5.75344 13.2294 5.33244 12.6289 4.93216C11.4508 4.14676 9.93046 4.74434 8.73575 5.49657C7.6074 6.20701 6.74068 7.06892 6.70435 7.10525C6.52353 7.28607 6.53802 7.58565 6.73964 7.74815Z" fill="#78C0DE"/>
<path d="M5.51339 12.3129C5.33119 12.1419 5.06965 11.8856 4.90254 11.6988C4.46135 11.2058 4.46131 10.4623 4.90299 9.96877C5.01734 9.84122 5.24604 9.60596 5.51335 9.35515C5.04436 9.00011 4.46848 8.45361 3.92598 7.63978C3.77491 7.41333 3.45379 7.38081 3.26069 7.57391C2.61571 8.21888 2.26089 8.9963 2.28717 9.70676C2.31489 10.455 2.31491 11.2136 2.28719 11.9613C2.26089 12.6718 2.61571 13.4492 3.26069 14.0941C3.45346 14.2869 3.77479 14.2551 3.92595 14.0282C4.4685 13.2145 5.0444 12.6679 5.51339 12.3129Z" fill="#78C0DE"/>
<path d="M15.3497 14.0807C14.0415 12.576 14.0388 9.10293 15.3461 7.5913C15.3612 7.57384 15.3518 7.584 15.5497 7.38612C14.533 7.09279 13.5152 6.94386 12.5199 6.94404C10.3067 6.944 8.14272 8.19517 6.49127 9.63574C6.07742 9.99694 5.71782 10.3545 5.54634 10.5458C5.39947 10.7099 5.39947 10.9582 5.54636 11.1223C5.91433 11.5337 6.67718 12.2391 7.49793 12.8345C8.75285 13.7438 10.2022 14.4772 11.733 14.6727C11.7399 14.6665 12.009 14.7176 12.5488 14.7238C13.5308 14.721 14.5441 14.5747 15.5313 14.2904L15.3497 14.0807Z" fill="#78C0DE"/>
<path d="M19.8431 11.81C20.0472 11.5527 20.231 11.221 20.2551 10.8904C20.3088 10.164 19.501 9.42023 18.9143 8.98753C18.1853 8.4499 17.3083 8.00833 16.4675 7.69102L15.9905 8.16804C14.9744 9.36296 14.982 12.3401 16.0027 13.5141L16.4214 13.9973C17.5854 13.5637 19.0796 12.7852 19.8431 11.81ZM16.7028 10.4705C16.6339 10.2515 16.7552 10.0033 16.9905 9.9318C17.2134 9.85772 17.4847 9.9944 17.5398 10.2607C17.5619 10.3685 17.541 10.4849 17.4754 10.5851C17.264 10.8938 16.8055 10.811 16.7028 10.4705Z" fill="#78C0DE"/>
</svg>

<svg width="21" height="22" fill="none" xmlns="http://www.w3.org/2000/svg"><path d="M6.701 13.319a6.3 6.3 0 0 0-.436 1.164.432.432 0 0 0 .194.47c.087.054 2.151 1.3 3.865.593a5.28 5.28 0 0 0 .401-.186c-1.461-.364-2.831-1.13-4.024-2.041ZM6.74 7.748c.003.003.151.123.348.316C8.684 6.927 10.559 6.08 12.52 6.08c.433 0 .87.025 1.307.077-.224-.404-.598-.825-1.198-1.225-1.178-.785-2.699-.188-3.893.565a12.972 12.972 0 0 0-2.032 1.608c-.18.181-.166.48.036.643ZM5.513 12.313a11.454 11.454 0 0 1-.61-.614 1.296 1.296 0 0 1 0-1.73c.114-.128.343-.363.61-.614A7.008 7.008 0 0 1 3.926 7.64a.432.432 0 0 0-.665-.066c-.645.645-1 1.422-.974 2.133.028.748.028 1.507 0 2.254-.026.71.329 1.488.974 2.133a.432.432 0 0 0 .665-.066 7.01 7.01 0 0 1 1.587-1.715Z" fill="#78C0DE"/><path d="M15.35 14.08c-1.309-1.504-1.311-4.977-.004-6.489.015-.017.006-.007.204-.205a10.927 10.927 0 0 0-3.03-.442c-2.213 0-4.377 1.251-6.029 2.692-.414.36-.773.719-.945.91a.432.432 0 0 0 0 .576c.368.412 1.131 1.117 1.952 1.713 1.255.909 2.704 1.642 4.235 1.838.007-.007.276.045.816.05.982-.002 1.995-.148 2.982-.433l-.181-.21Z" fill="#78C0DE"/><path d="M19.843 11.81c.204-.257.388-.589.412-.92.054-.726-.754-1.47-1.34-1.902-.73-.538-1.607-.98-2.447-1.297l-.477.477c-1.017 1.195-1.009 4.172.012 5.346l.418.483c1.164-.433 2.659-1.212 3.422-2.187Zm-3.14-1.34a.431.431 0 1 1 .825-.251.431.431 0 0 1-.825.252Z" fill="#78C0DE"/></svg>
